svg/furkot/mapbox-maki/rail_metro.svg

<svg viewBox="0 0 512 512" xmlns="http://www.w3.org/2000/svg"><path d="m187.334 0s-25.601 0-34.134 34.133l-51.2 187.734v119.466c0 34.133 34.133 34.133 34.133 34.133h238.933s34.133 0 34.133-34.133v-119.466l-51.2-187.734c-9.307-34.133-34.132-34.133-34.132-34.133zm34.133 51.2h68.267s18.284 0 25.599 34.133l25.601 119.466c7.325 34.192-34.134 34.135-34.134 34.135h-102.4s-41.458.057-34.133-34.135l25.599-119.466c7.315-34.133 25.601-34.133 25.601-34.133zm-51.2 221.866c18.852 0 34.133 15.281 34.133 34.133s-15.281 34.134-34.133 34.134-34.134-15.282-34.134-34.134 15.282-34.133 34.134-34.133zm59.733 0h51.2c4.727 0 8.534 3.807 8.534 8.534s-3.807 8.533-8.534 8.533h-51.2c-4.727 0-8.533-3.806-8.533-8.533s3.806-8.534 8.533-8.534zm110.934 0c18.851 0 34.132 15.281 34.132 34.133s-15.281 34.134-34.132 34.134c-18.852 0-34.134-15.282-34.134-34.134s15.282-34.133 34.134-34.133zm-200.534 136.533-38.4 102.401h51.2l12.8-34.134h179.2l12.799 34.134h51.2l-38.399-102.401h-51.2l12.8 34.134h-153.6l12.8-34.134z"/></svg>

<svg viewBox="0 0 512 512" xmlns="http://www.w3.org/2000/svg"><path d="M 187.334 0 C 187.334 0 161.733 0 153.2 34.133 L 102 221.867 L 102 341.333 C 102 375.466 136.133 375.466 136.133 375.466 L 375.066 375.466 C 375.066 375.466 409.199 375.466 409.199 341.333 L 409.199 221.867 L 357.999 34.133 C 348.692 0 323.867 0 323.867 0 L 187.334 0 Z M 221.467 51.2 L 289.734 51.2 C 289.734 51.2 308.018 51.2 315.333 85.333 L 340.934 204.799 C 348.259 238.991 306.8 238.934 306.8 238.934 L 204.4 238.934 C 204.4 238.934 162.942 238.991 170.267 204.799 L 195.866 85.333 C 203.181 51.2 221.467 51.2 221.467 51.2 Z M 170.267 273.066 C 189.119 273.066 204.4 288.347 204.4 307.199 C 204.4 326.051 189.119 341.333 170.267 341.333 C 151.415 341.333 136.133 326.051 136.133 307.199 C 136.133 288.347 151.415 273.066 170.267 273.066 Z M 230 273.066 L 281.2 273.066 C 285.927 273.066 289.734 276.873 289.734 281.6 C 289.734 286.327 285.927 290.133 281.2 290.133 L 230 290.133 C 225.273 290.133 221.467 286.327 221.467 281.6 C 221.467 276.873 225.273 273.066 230 273.066 Z M 340.934 273.066 C 359.785 273.066 375.066 288.347 375.066 307.199 C 375.066 326.051 359.785 341.333 340.934 341.333 C 322.082 341.333 306.8 326.051 306.8 307.199 C 306.8 288.347 322.082 273.066 340.934 273.066 Z M 140.4 409.599 L 102 512 L 153.2 512 L 166 477.866 L 345.2 477.866 L 357.999 512 L 409.199 512 L 370.8 409.599 L 319.6 409.599 L 332.4 443.733 L 178.8 443.733 L 191.6 409.599 L 140.4 409.599 Z"/></svg>
